X:1
T:La cieca
T:La cieca
T:Giovanni Ghizzolo
C:Giovanni Ghizzolo
%%score 1 { 2 | 3 }
L:1/8
Q:1/4=120
M:4/4
K:F
V:1 treble nm="Soprano Tenor"
V:2 treble nm="MusicXML Part"
V:3 bass 
V:1
"^Source: Madrigali et Arie---Libro primo---Venetia---A.Raverij---1609.\nEditor: André Vierendeels (08/05/07)\nContinuo: André Vierendeels""^AMARILLI" z4 d4- | %1
w: Ec-|
 d2 GG A4 |[M:2/4] G4"^MIRTILLO" || C4- |[M:4/4] C2 F,F, G,4 | F,4 D4- | D>B, C/A,/B,/^F,/ G,4 | %7
w: * co la cie-|ca.|Ec|_ co l'a pun-|to a|_ _ hai _ _ _ vis-|
 ^F,8 || A8- | A2 GG G4 | A8"^MIRTILLO" || z2 F2 C3 C | C2 D2 E4 | D4 z2 A,A, | B,6 G,G, | A,8 | %16
w: ta.|Hor|_ che si tar-|da?|A'hai vo- ce|che- m'hai pun-|to e sa-|na- to'in un|pun-|
[M:2/4] G,4 || z2 d2- |[M:4/4] d2 G2 G4 | A4 z2 B2 | G4 A4 | z2 F2 G2 A2 | B2 BA Bcde | f6 B2 | %24
w: to.|O-|* ve se-|te? Che|fa- te?|E tu Li-|set- ta che si bra- ma- n'il|gio- co|
 c3 B B2 B2 | z2 ^F2 G4 | A4 z AAA | A4 A4 | z cBA G4 | A8 ||"^MIRTILLO" G,2 G,3 E,F,G, | A,4 A,4 | %32
w: de la cie- ca.|Che ba-|di? E tu Co-|ris- ca,|o- ve se i-|ta?|Hor si che si puo|di- re|
 z CB,A, CG,G,A, | B,6 A,2 | A,8 | G,8 || z2 FF F2 FG | A2 AB c2 FF | G4 G4 | z GGG GGGA | %40
w: ch'a- mor e cie- co'ed' ha ben-|a- ti|gl'oc-|chi.|As- col- ta- te- mi|voi che'l sen- tier mi scor-|ge- te|e quin- ci'e quin- di Mi te-|
 B2 AG A4 | z ABc d2 d2 | f3 _e d2 cB | c4 c4 | z2 ^F2 G>G A>A | B/A/B/c/ d/c/d/e/ f4- | %46
w: ne- te per man,|co- me fien gion- te|l'al- tre no- stre com-|pa- gne,|gui- da- te- mi lon-|tan _ _ _ _ _ _ _ _|
 f2 B2 B2 B2 | c4 c4 | z ccd _e2 e2 | d4 c4 | z GGA B2 B2 | A3/2B/4c/4 B3/2c/4d/4 A4 | G4 z GGG | %53
w: _ da ques- te|pian- te,|o- ve'e- mag- gior il|va- no|o- ve'e mag- giar il|va- * * * * * *|no e qui- vi|
 G4 G4 | z GGG G3 G | A4 A4 | d2 cB AGAB | c3 d d4 | c4 A2 GF | EDEF G3 A | A4 G4 | %61
w: so- la|las- cia- do- mi nel|mez- zo|con l'al- * * * * *|* tr'in schie-|ra i- te con|l'al- * * * * tr'in|schie- ra,|
[M:3/2] G4 A4 B4 | c8 c4 | c6 c2 c4 | d8 d4 | G6 G2 G4 | G4 A8 |[M:4/4] G8 || %68
w: e tut- te'in|fie- me|fat- te- mi|cer- chio'e|s'in- co- min-|c'il gio-|co.|
"^MIRTILLO" D4 G,G,G,G, | A,4 z2 A,2 | B,3 C C4 | C4 z2 CA, | C2 B,A, CF,F,F, | G,4 G,4 | %74
w: Ma che fa- ra di|me? fin|qui non veg-|gio qual mi|pos- sa ve- nir a ques- to|gio- co|
 z2 G,2 G,2 A,2 | B,4- B,A,B,C | D8- | D2 C2 C4 | B,4 z2 D2 | A,3 A, B,2 ^F,2 | G,4 G,2 E,2 | %81
w: co- mo di|ti _ che mio de-|sir|_ a- dem-|pia ne|so ve- fer Co-|ris- ca ch'e|
 F,2 G,2 A,2 F,2 | E,4 D,4 | z2 D2 _E4 | E2 D2 D4 | C8 || G2 G2 G2 EE | F4 F4 | c2 c2 c2 AA | %89
w: la mia Tra- mon-|ta- na|il Ciel|_ m'a- *|te.|Al fin se- te ve-|nu- te,|al fin se- te ve-|
 B4 B4 | z dcB c2 c2 | z ABc d4- | dcBA B4- | B2 B2 c4 | c2 cd G2 GA | A4 G4 | z2 F2 F4- | %97
w: nu- te|e che pen- sas- te|di non far al-|* tro che ben- dar|_ mi- gli'oc-|chi Paz- za- rel- le che|se- te,|hor co-|
 F2 G2 G4 | F8 || %99
w: * min- cia-|mo.|
V:2
 [DGB]8 | [Gc]4 [^FA]4 |[M:2/4] [DG=B]4 || [FAc]4 |[M:4/4] [FA]4 [Ec]4 | [FAc]4 [FB]4 | %6
 [^FA]4 [DB]4 | [DA]8 || [DF]8 | [DG]4 [Gc]4 | [^FA]8"^AMARILLI" || [DF]4 [FA]4 | %12
 [FAc]2 [FA]2 [EA]4 | [^FA]4 [=FA]4- | [FA]4 [Gc]4 | [_Ec]4 [^FA]4 |[M:2/4] [DG=B]4 || [DB]4 | %18
[M:4/4] [_G_c]8 | [D^FA]4 [DB]4 | [Gc]4 [^FA]4 | [FA]8 | [DB]8 | [FA]4 [DB]4 | [FAc]4 [DFB]4 | %25
 [DA]4 [DB]4 | [^FA]4 [=FA]4 | [FA]8 | [_EG]8 | [^FA]8 || [DB]4 [EG]4 | [F-Ac-]8 | [FAc]4 [EGc]4 | %33
 [DGB]8 | [^FA]8 | [DG=B]8 || [F-Ac-]8 | [FAc]8 | [E-Gc-]8 | [EGc]8 | [DB]4 [D-FA-]4 | [D-FA-]8 | %42
 [DFA]8 | [FAc]8 | [^FA]4 [DB]2 [FAc]2 | [DFB]8 | [Gc]4 [DB]4 | [F-Ac-]8 | [EAc]4 [_EG]4 | %49
 [D=B]4 [E-Gc-]4 | [EGc]4 [DGB]4 | [DA]4 [DG]2 [D^F]2 | [D=B]4 [E-Gc-]4 | [E-Gc-]8 | [EGc]4 [DG]4 | %55
 [Ac]8 | [FB]8 | [EA]2 [DA]2 [D=B]4 | [EGc]4 [FAc]4 | [Gc]4 [_EG]4 | [D^FA]4 [D=B]4 | %61
[M:3/2] [DGB]12 | [EGc]12 | [FAc]12 | [DFB]12 | [Gc]12 | [_EG]8 [DG]2 [D^F]2 |[M:4/4] [D=B]8 || %68
 [DGB]8 | [DFA]8 | [DB]2 [Gc]2 [F-Ac-]4 | [F-Ac-]8 | [FAc]8 | [E-Gc-]8 | [EGc]8 | [DGB]8 | %76
 [D-FB-]8 | [DFB]2 [Gc]2 [FAc]4 | [DFB]4 [DGB]4 | [^FA]8"^AMARILLI" | [EG]8 | [FA]8 | [EA]4 [FA]4 | %83
 [DB]4 [Gc]4 | [DB]4 [G=B]4 | [EGc]8 || [EGc]8 | [F-Ac-]8 | [FAc]8 | [D-FB-]8 | [DFB]4 [F-Ac-]4 | %91
 [FAc]4 [FA]4 | [DB]8 | [GB]4 [F-Ac-]4 | [FAc]4 [Gc]4 | [^FA]4 [DB]4 | [DFB]8 | [DF]2 [DG]2 EFGE | %98
 [FAc]8 || %99
V:3
 G,8 | _E,4"^AMARILLI" D,4 |[M:2/4] G,,4 || F,4 |[M:4/4] D,4 C,4 | F,,4 B,,2 A,,G,, | D,4 G,,4 | %7
 D,8 || D,8 | =B,,4 _E,4 | D,4 D,,4 || B,,4 F,3 F, | F,2 D,2 A,,4 | D,4 D,4- | D,2 D,D, _E,4 | %15
 C,2 C,2 D,4 |[M:2/4] G,,4 || G,,4 |[M:4/4] C,4 _E,4 | D,4 G,4 | _E,4 D,4 | z2 D,2 E,2 F,2 | %22
 G,2 G,F, G,A,B,C | DCB,A, B,2 G,2 | F,4 B,,4 | D,4 G,,4 | D,4 D,,4 | D,4 z F,_E,D, | C,3 D, _E,4 | %29
 D,8 ||"^AMARILLI" G,,4 C,4 | F,,4 F,,4 | F,4 C,2 B,,A,, | G,,2 A,,2 B,,2 C,2 | D,4 D,,4 | G,,8 || %36
 F,8 | F,,8 | C,8 | C,8 | G,,4 D,4 | D,8 | D,8 | F,4 F,,4 | D,4 G,2 F,2 | B,,6 B,,2 | _E,4 G,4 | %47
 F,4 F,,4 | F,4 C,4 | G,4 C,4 | C,4 G,,4 | D,4 D,,4 | G,,4 C,4 | C,8 | C,4 =B,,2 C,2 | F,,8 | %56
 B,2 A,G, F,E,F,G, | A,2 ^F,2 G,4 | C,4 F,2 E,D, | C,B,,C,D, _E,2 C,2 | D,4 G,,4 | %61
[M:3/2] G,4 ^F,4 G,4 | C,8 C,4 | F,4 E,4 F,4 | B,,8 B,,4 | _E,6 D,2 C,4 | C,8 D,4 |[M:4/4] G,,8 || %68
 G,4 G,,4 | D,4 D,4 | G,2 _E,2 F,4 | F,,8 | F,,8 | C,4 C,4 | z2 C,2 B,,2 A,,2 | %75
 G,,4- G,,F,,G,,A,, | B,,A,,B,,C, D,C,D,E, | F,2 _E,2 F,4 | B,,4 G,,4 | D,8 | C,4 C,2 C,2 | %81
 D,2 E,2 F,2 D,2 | A,,4 D,4 | G,4 C,D,_E,C, | G,4 G,,4 | C,8 || C,8 | F,,8 | F,8 | B,,4 B,,4 | %90
 B,,4 F,,4 | F,4 z D,E,F, | G,4- G,F,_E,D, | _E,2 D,2 F,4 | %94
 F,2 F,D,"^Note: indicated as \"Gioco della Cieca\" on the title page" _E,2 E,C, | D,4 G,,4 | %96
 B,,4 B,,A,,B,,C, | D,2 B,,2 C,4 | F,,8 || %99

